X:3
T:10 Nursery rhymes
F:http://www.vwml.org/record/SBG/3/
Z:Original Sibelius transcriptions by M. & S. Graebe
M:2/4
I:linebreak $
K:Bb
V:1 treble nm="P1"
V:1
 F | B2 A G | F2 F F | B2 A G | F3 D | D2 F D | E2 D D | D C2 F |$ B2 A G | F2 F F | B2 A G | %11
 F3 D | D2 F D | E2 D D | C B,2 x | %15





